v2/src/assets/icones/icon__cat.svg

<svg width="41" height="38" viewBox="0 0 41 38" fill="none" xmlns="http://www.w3.org/2000/svg">
<path d="M23.2699 12.6667C21.6539 12.6667 14.716 12.8234 10.25 19.471V12.6667C10.25 8.47558 6.80184 5.06667 2.5625 5.06667C1.14752 5.06667 0 6.20113 0 7.6C0 8.99887 1.14752 10.1333 2.5625 10.1333C3.97508 10.1333 5.125 11.2702 5.125 12.6667V32.9333C5.125 35.7279 7.42324 38 10.25 38H24.3438C25.0516 38 25.625 37.4332 25.625 36.7333V35.4667C25.625 34.0678 24.4775 32.9333 23.0625 32.9333H20.5L30.75 25.3333V36.7333C30.75 37.4332 31.3234 38 32.0312 38H34.5938C35.3016 38 35.875 37.4332 35.875 36.7333V20.4139C35.051 20.6253 34.2022 20.7733 33.3125 20.7733C28.3629 20.7733 24.222 17.286 23.2699 12.6667ZM35.875 5.06667H30.75L25.625 0V10.64C25.625 14.8374 29.0668 18.24 33.3125 18.24C37.5582 18.24 41 14.8374 41 10.64V0L35.875 5.06667ZM30.1094 11.4C29.4015 11.4 28.8281 10.8332 28.8281 10.1333C28.8281 9.4335 29.4015 8.86667 30.1094 8.86667C30.8173 8.86667 31.3906 9.4335 31.3906 10.1333C31.3906 10.8332 30.8173 11.4 30.1094 11.4ZM36.5156 11.4C35.8077 11.4 35.2344 10.8332 35.2344 10.1333C35.2344 9.4335 35.8077 8.86667 36.5156 8.86667C37.2235 8.86667 37.7969 9.4335 37.7969 10.1333C37.7969 10.8332 37.2235 11.4 36.5156 11.4Z" fill="black"/>
</svg>

<?xml version="1.0" encoding="utf-8"?>
<!-- Generator: Adobe Illustrator 26.3.1, SVG Export Plug-In . SVG Version: 6.00 Build 0)  -->
<svg version="1.1" id="Camada_1" xmlns="http://www.w3.org/2000/svg" xmlns:xlink="http://www.w3.org/1999/xlink" x="0px" y="0px"
	 viewBox="0 0 41 38" style="enable-background:new 0 0 41 38;" xml:space="preserve">
<style type="text/css">
	.st0{fill:#391741;}
</style>
<path class="st0" d="M23.3,12.7c-1.6,0-8.6,0.2-13,6.8v-6.8c0-4.2-3.4-7.6-7.7-7.6C1.1,5.1,0,6.2,0,7.6s1.1,2.5,2.6,2.5
	c1.4,0,2.6,1.1,2.6,2.5v20.3c0,2.8,2.3,5.1,5.1,5.1h14.1c0.7,0,1.3-0.6,1.3-1.3v-1.3c0-1.4-1.1-2.5-2.6-2.5h-2.6l10.2-7.6v11.4
	c0,0.7,0.6,1.3,1.3,1.3h2.6c0.7,0,1.3-0.6,1.3-1.3V20.4c-0.8,0.2-1.7,0.4-2.6,0.4C28.4,20.8,24.2,17.3,23.3,12.7z M35.9,5.1h-5.1
	L25.6,0v10.6c0,4.2,3.4,7.6,7.7,7.6s7.7-3.4,7.7-7.6V0L35.9,5.1z M30.1,11.4c-0.7,0-1.3-0.6-1.3-1.3c0-0.7,0.6-1.3,1.3-1.3
	c0.7,0,1.3,0.6,1.3,1.3C31.4,10.8,30.8,11.4,30.1,11.4z M36.5,11.4c-0.7,0-1.3-0.6-1.3-1.3c0-0.7,0.6-1.3,1.3-1.3
	c0.7,0,1.3,0.6,1.3,1.3C37.8,10.8,37.2,11.4,36.5,11.4z"/>
</svg>
